X: 150105
M: 3/4
L: 1/8
K: D
uA2 |\
d3efd | A4F2 | (G2E2)A2 | (F2D2)A2 |\
d3efd | A4F2 | (G2E2)A2 | D2z2 :|\
ud2 |\
c3dec | (d2f2)d2 | e3fge | (f2d2)d2 |


